X: 4309
T: Bog An Lochan
R: strathspey
M: 4/4
K: Edorian
E/E/EE2 E>FB>F|E/E/EE2 F<DA>F|E/E/EE2 E>FB>A|1 B<dA>d F<DA>F:|2 B<dA>d F<DD>A||
B<EB>A B<EE>A|B<EB>A F<DD>A|B<EB>A d>ef>e|1 d/c/B/A/ d>A F<DD>A:|2 d/c/B/A/ d>A F<DD>f||
e/e/ee2 e>fb>f|e/e/ee2 f<da>f|e/e/ee2 e>fb>f|g<eb>e df/g/ a>f|
g<eb>e g<eb>e|g<eb>e df/g/ a>f|g<eb>e d>ef>e|d/c/B/A/ d>A F<DD>A||
B<EB>A B<EE>A|B<EB>A F<DD>A|B<EB>A d>ef>e|1 d/c/B/A/ d>A F<DD>A:|2 d/c/B/A/ d>A F<DD>F||

